!!!!SEGMENT: pl-wtm--a-27-705-73_bauerfeind-wladyslaw--ivresse-d-amour.krn
!!!cenid: 19xx:30
!!!COM: Bauerfeind, Władysław
!!!COM-rismID: pe50046019
!!!CDT: 1880-1939
!!!CNT: Polish
!!!OTL: Ivresse d’amour
!!!PDT:
!!!AGN: Secular
!!!YEC: Copyright 2022 Narodowy Instytut Fryderyka Chopina (https://polishscores.org)
!!!YEM: License CC-BY-4.0 (https://creativecommons.org/licenses/by/4.0)
!!!SMS-siglum: PL-Wtm
!!!SMS-shelfmark: A.27.705/73
!!!SMS-variant:
!!!SMS-altvar:
!!!SMS-shelfwork: W
!!!NIFC-rismSourceID: 1001219857
!!!NIFC-rismChildID: 1001219857
!!!NIFC-islandoraID: pl-wtm:95483
!!!URL-pdf-islandora: https://repozytorium.nifc.pl/islandora/object/pl-wtm%3A95483/datastream/PDF/view
!!!URL-scan: https://polish.musicsources.pl/pl/lokalizacje/galeria/druki-muzyczne/20367/2 @EN{Scan on Polish Music Sources Website} @PL{Skany w portalu Dziedzictwo Muzyki Polskiej w otwartym dostępie}
!!!IIIF:
!!!ONB-nifc:
!!!AIN: 1 canto 1 forte
!!!key: A-
**kern	**kern	**dynam	**kern	**text	**text	**text	**text	**dynam
*part2	*part2	*	*part1	*	*	*	*	*
*staff3	*staff2	*staff2/3	*staff1	*	*	*	*	*
*I"Piano	*I"Piano	*	*I"Canto	*	*	*	*	*
*I'P-no	*I'P-no	*	*I'C.	*	*	*	*	*
*ICklav	*ICklav	*	*ICvox	*	*	*	*	*
*Iforte	*Iforte	*	*Icanto	*	*	*	*	*
*clefF4	*clefG2	*	*clefG2	*	*	*	*	*
*k[b-e-a-d-]	*k[b-e-a-d-]	*	*k[b-e-a-d-]	*	*	*	*	*
*A-:	*A-:	*	*A-:	*	*	*	*	*
*M2/4	*M2/4	*	*M2/4	*	*	*	*	*
*>[A,B,B1,B,B2,C,C1,C,C2]	*	*	*	*	*	*	*	*
=1	=1	=1	=1	=1	=1	=1	=1	=1
*>A	*	*	*	*	*	*	*	*
!	!LO:TX:B:a:t=Tempo di tango.	!	!	!	!	!	!	!
4FFF/ 4FF/	4r	f	2ryy	.	.	.	.	.
8.f\L 8.a-\ 8.cc\	8.ff\L 8.aa-\ 8.ccc\ 8.fff\	.	.	.	.	.	.	.
16e-\Jk 16a-\ 16cc\	16ee-\Jk 16aa-\ 16ccc\ 16eee-\	.	.	.	.	.	.	.
=2	=2	=2	=2	=2	=2	=2	=2	=2
4d-\ 4f\ 4a-\	4dd-\ 4aa-\ 4ddd-\	.	2ryy	.	.	.	.	.
4c\ 4f\ 4a-\	4cc\ 4aa-\ 4ccc\	.	.	.	.	.	.	.
=3	=3	=3	=3	=3	=3	=3	=3	=3
4BBB-/ 4BB-/	4r	>	2ryy	.	.	.	.	.
8.B-\L 8.d-\ 8.f\	8.b-\L 8.dd-\ 8.ff\ 8.bb-\	.	.	.	.	.	.	.
16A-\Jk 16d-\ 16f\	16a-\Jk 16dd-\ 16ff\ 16aa-\	.	.	.	.	.	.	.
=4	=4	=4	=4	=4	=4	=4	=4	=4
4G\ 4B-\ 4d-\	4g\ 4dd-\ 4gg\	.	2ryy	.	.	.	.	.
4F\ 4B-\ 4d-\	4f\ 4dd-\ 4ff\	]]	.	.	.	.	.	.
=5	=5	=5	=5	=5	=5	=5	=5	=5
4CC/ 4C/	4r	<	2ryy	.	.	.	.	.
4G\ 4B-\ 4c\ 4en\	8.g\L 8.b-\ 8.een\ 8.gg\	.	.	.	.	.	.	.
.	16a-\Jk 16aa-\	.	.	.	.	.	.	.
=6	=6	=6	=6	=6	=6	=6	=6	=6
4DD-/ 4D-/	4b-\ 4ff\ 4gg\ 4bb-\	.	2ryy	.	.	.	.	.
4BBB-/ 4BB-/	4dd-\ 4ff\ 4gg\ 4ddd-\	[[	.	.	.	.	.	.
=7	=7	=7	=7	=7	=7	=7	=7	=7
8CC/L 8C/	8cc\L 8een\ 8gg\ 8ccc\	>	2ryy	.	.	.	.	.
16r	16r	.	.	.	.	.	.	.
16F#X/Jk	16f#X\Jk	.	.	.	.	.	.	.
8G\L	8g/L	.	.	.	.	.	.	.
8En\J	8en/J	]]	.	.	.	.	.	.
!!LO:LB:g=original
=8	=8	=8	=8	=8	=8	=8	=8	=8
!	!	!	!	!	!	!	!	!LO:DY:a
4C/	4c/	.	4r	.	.	.	.	p
!	!LO:TX:i:b:t=appassionato	!	!LO:TX:i:a:t=appassionato	!	!	!	!	!
8r	16r	.	8r	.	.	.	.	.
.	(16cc\LL	.	.	.	.	.	.	.
8r	16dd-\	.	24cc\LL	Dźwięk	.	Prze-	.	.
.	.	.	24dd-\	tan-	.	-mi-	.	.
.	16cc\JJ)	.	.	.	.	.	.	.
.	.	.	24cc\JJ	-ga	.	-ną	.	.
=9!|:	=9!|:	=9!|:	=9!|:	=9!|:	=9!|:	=9!|:	=9!|:	=9!|:
*>B	*	*	*	*	*	*	*	*
8.FF\L 8.F\	(16f\ 16a-\ 16ff\	.	16ff\	szlo-	splo-	la-	skrzy-	.
.	4..cc\)	.	4..cc\	-cha!	-ty	-ta	-pki	.
16c\Jk	.	.	.	.	.	.	.	.
8A-\L 8f\	.	.	.	.	.	.	.	.
8c\J	.	.	.	.	.	.	.	.
=10	=10	=10	=10	=10	=10	=10	=10	=10
8.AA-\L	16r	.	16r	.	.	.	.	.
.	16cc\LL	.	16cc\	Wi-	W pa-	Na	U-	.
.	16bn\	.	16bn\	-ru-	-mię-	ba-	-sły-	.
16A-\Jk	16cc\JJ	.	16cc\	-je	-ci	-lu	-szysz	.
!	!	!	!	!	!	!	!	!LO:DY:a
8.c\L	16g/LL	>	16g/	na-	bu-	uj-	dzi-	>
.	16a-/	.	16a-/	-gich	-dzą	-rzę	-wne	.
.	16en/	.	16en/	ra-	coś	kie-	łka-	.
16A-\Jk	16f/JJ	.	16f/	-mion	z prze-	-dyś	-nie	.
=11	=11	=11	=11	=11	=11	=11	=11	=11
8.BBB-/L 8.BB-/	8.B-/L 8.d-/ 8.f/ 8.a-/	.	8.a-/	bla-	-ży-	cie-	ska-	.
16BB-/Jk	16g/Jk	.	16g/	-dy	-tych	-bie	-rgi	.
8D-\L 8F\ 8G\	4B-/ 4d-/ 4f/ 4g/	]]	4g/	tłum...	mar	znów...	znój	]]
8BB-\J	.	.	.	.	.	.	.	.
!!LO:LB:g=original
=12	=12	=12	=12	=12	=12	=12	=12	=12
!	!	!	!	!	!	!	!	!LO:DY:a
8.GG/L	8r	<	8r	.	.	.	.	<
.	16r	.	16r	.	.	.	.	.
16BB-/Jk	16g/	.	16g/	1. W mej	2. A	3 W kra-	4. Szem-	.
8D-\L 8F\ 8G\	8.b-\L	.	8.b-\	gło-	mgli-	-i-	-rzą-	.
8BB-\J	.	.	.	.	.	.	.	.
.	16dd-\Jk	.	16dd-\	-wie	-stych	-nę	-cych	.
=13	=13	=13	=13	=13	=13	=13	=13	=13
8.EEn/L 8.En/	8.dd-\L	.	8.dd-\	wi-	spoj-	tan-	pe-	.
16c\Jk	16cc\Jk	.	16cc\	-na	-rzeń	-ga	-reł	.
8B-\L 8en\	[4b-\ [4gg\	[[	4gg\	szum,	żar	snów	zdrój...	[[
8c\J	.	.	.	.	.	.	.	.
=14	=14	=14	=14	=14	=14	=14	=14	=14
8.CC/L 8.C/	16b-\LL] 16gg\]	.	16r	.	.	.	.	.
.	16een\	.	16een\	A	Roz-	Po-	To	.
.	16dd-\	.	16dd-\	w głę-	-bu-	-ły-	bę-	.
16c/Jk	16cc\JJ	.	16cc\	-bi	-dza	-niem	-dą	.
8B-\L 8en\	16cc/LL	.	16cc\	ję-	prag-	lek-	mo-	.
.	16b-/	.	16b-\	-czy	-nień	-ko	-je	.
8c\J	16g/	.	16g/	śpiew	rój	nu-	łzy	.
.	16b-/JJ	.	16b-\	pi-	co	-cąc	i	.
=15	=15	=15	=15	=15	=15	=15	=15	=15
.	(16qqb-/LL	>	.	.	.	.	.	.
.	16qqcc/JJ	.	.	.	.	.	.	.
!	!	!	!	!	!	!	!	!LO:DY:a
8.FF/L 8.F/	8.g/L 8.b-/)	.	8.b-\	-ja-	w pierś	pieśń	smu-	>
16F/Jk	16f/Jk 16a-/	.	16a-/	-nych	się	bez	-tek	.
8A-\L 8c\	4f/ 4a-/	]]	4a-/	dum...	wdarł	słów	mój	]]
8F\J	.	.	.	.	.	.	.	.
!!LO:PB:g=original
=16	=16	=16	=16	=16	=16	=16	=16	=16
!	!	!	!	!	!	!	!	!LO:DY:a
8.AA-\L 8.A-\	8r	<	8r	.	.	.	.	<
*	*tuplet	*	*	*	*	*	*	*
.	24cc\LL	.	24cc\	Sza-	Ta-	O-	Ja-	.
.	24dd-\	.	24dd-\	-lo-	-jem-	-dle-	-skół-	.
16c\Jk	.	.	.	.	.	.	.	.
.	24cc\JJ	.	24cc\	-ny	-nych	-gła	-ki	.
8A-\L 8f\	8bn\L	.	8bn\	kto	mąk	baśń	lo-	.
8c\J	8cc\J	.	8cc\	po-	pie-	skrzy-	-tem	.
=17	=17	=17	=17	=17	=17	=17	=17	=17
8.AAn\L 8.An\	(4f\ 4cc\ 4ff\	.	(4ff\	-ko-	-szczo-	-dla-	hyb-	.
16F\Jk	.	.	.	.	.	.	.	.
8A\L 8e-\	4f\) 4cc\ 4ee-\	.	4ee-\)	-cha	-ty	-ta	-kiej	.
8F\J	.	.	.	.	.	.	.	.
=18	=18	=18	=18	=18	=18	=18	=18	=18
8.FF/L 8.F/	16r	.	16r	.	.	.	.	.
.	16cc\LL 16ee-\	.	16ee-\	Bez-	Chcę	Nad	Po-	.
.	16g-X\	.	16g-X/	-dusz-	zaz-	ja-	-bieg-	.
16F/Jk	16f\JJ	.	16f/	-ny	-nać	-sną	-niesz	.
8An\L 8e-\	16g-/LL 16ee-/	.	16ee-\	cud	zno-	głów-	my-	.
.	16g-/ 16ee-/	.	16ee-\	won-	-wu	-ką	-ślą	.
8F\J	16f/ 16dd-/	.	16dd-\	-ne-	z tą	za-	hen	.
.	16e-/JJ 16cc/	.	16cc\	-go	je-	-wi-	przed	.
=19	=19	=19	=19	=19	=19	=19	=19	=19
8.BBB-/L 8.BB-/	4g-X\ 4ee-\	.	(4ee-\	cia-	-dy-	-ru-	sie-	.
16F/Jk	.	.	.	.	.	.	.	.
8B-\L 8d-\	[4f/ [4dd-/	[	4dd-\)	-ła...	-ną,	-je,	-bie,	[
8F\J	.	.	.	.	.	.	.	.
!!LO:LB:g=original
=20	=20	=20	=20	=20	=20	=20	=20	=20
8.DD-/L 8.D-/	(24f/LL] 24dd-/]	.	24r	.	.	.	.	.
.	24f/	.	24f/	Trze-	I	Zro-	O	.
.	24g-X/	.	24g-X/	-po-	rap-	-zu-	wiel-	.
.	24f/	.	24f/	-ce	-tem	-miesz	-kim	.
.	24en/	.	24en/	ser-	ja-	wresz-	u-	.
16F/Jk	.	.	.	.	.	.	.	.
.	24f/JJ	.	24f/	-ce	-kieś	-cie	-ko-	.
8G\L 8B-\ 8d-\	24gn\LL	.	24gn/	jak	łzy	ty	-cha-	.
.	24an\	.	24an/	skrwa-	nie-	co	-niu	.
.	24b-\	.	24b-\	-wio-	-zna-	wier-	piosn-	.
8F\J	24cc\	.	24cc\	-na	-ne	-ne	-ka	.
.	24.ee-\	.	24.ee-\	czaj-	z o-	ser-	myt	.
.	48dd-\JJk)	.	48dd-\	-ka	-czu	-ce	wy-	.
=21	=21	=21	=21	=21	=21	=21	=21	=21
8.CC/L 8.C/	(4dd-\	.	(4dd-\	bia-	pły-	czu-	-grze-	.
16C/Jk	.	.	.	.	.	.	.	.
8F\L 8A-\ 8c\	4f/) 4a-/ 4cc/	>	4cc\)	-ła.	-ną.	-je.	-bie.	>
8C\J	.	.	.	.	.	.	.	.
=22	=22	=22	=22	=22	=22	=22	=22	=22
*>B1	*	*	*	*	*	*	*	*
8.DD-/L 8.D-/	8r	.	8r	.	.	.	.	.
.	24b-\LL	.	24b-\	Strzas-	.	Śród	.	.
.	24cc\	.	24cc\	-ka-	.	tłu-	.	.
16F/Jk	.	.	.	.	.	.	.	.
.	24b-\JJ	.	24b-\	-ny	.	-mu	.	.
8A-\L 8d-\	8f/L 8a-/	.	8a-/	ma-	.	ob-	.	.
8F\J	8b-/J	]]	8b-\	-rzeń	.	-cych	.	]]
!!LO:LB:g=original
=23	=23	=23	=23	=23	=23	=23	=23	=23
8CC/L 8C/	8en/L 8cc/	.	[2cc\	tum!	.	głów.	.	.
16r	16r	.	.	.	.	.	.	.
16F#X/Jk	16f#X/Jk	.	.	.	.	.	.	.
8G\L	8g/L	.	.	.	.	.	.	.
8En\J	8e/J	.	.	.	.	.	.	.
=24	=24	=24	=24	=24	=24	=24	=24	=24
4C/	4c/	.	4cc\]	.	.	.	.	.
4r	8r	.	8r	.	.	.	.	.
.	24cc\LL	.	24cc\	Wę-	.	I	.	.
.	24dd-\	.	24dd-\	-żo-	.	w dźwię-	.	.
.	24cc\JJ	.	24cc\	-we	.	-ku	.	.
=25:|!	=25:|!	=25:|!	=25:|!	=25:|!	=25:|!	=25:|!	=25:|!	=25:|!
*>B2	*	*	*	*	*	*	*	*
8.CC/L 8.C/	8r	.	8r	.	.	.	.	.
!	!	!	!	!	!	!	!	!LO:DY:a
.	8cSS</	>	8cSS/	Wspo-	.	.	.	>
16C/Jk	.	.	.	.	.	.	.	.
4C/	8.B-X/L 8.en/ 8.a-/	.	8.a-/	-mnie-	.	.	.	.
.	16g/Jk	.	16g/	-nia	.	.	.	.
=26	=26	=26	=26	=26	=26	=26	=26	=26
8FF/L 8C/	8A-/L 8f/	.	[2f/	czar!	.	.	.	.
16r	16r	.	.	.	.	.	.	.
16BBn/Jk	16Bn/Jk	.	.	.	.	.	.	.
8C/L	8c/L	.	.	.	.	.	.	.
8AA-/J	8A-/J	.	.	.	.	.	.	.
=27	=27	=27	=27	=27	=27	=27	=27	=27
4FF/	4F/	.	4f/]	.	.	.	.	.
4r	8r	]	8r	.	.	.	.	]
.	8f\ 8ff\	.	8ff\	I	.	.	.	.
!!LO:PB:g=original
=28||	=28||	=28||	=28||	=28||	=28||	=28||	=28||	=28||
8.CC/L 8.C/	8r	.	8r	.	.	.	.	.
*	*8va	*	*	*	*	*	*	*
.	8ccSS</	.	8ccSS\	I	.	.	.	.
16C/Jk	.	.	.	.	.	.	.	.
4C/	8.b-X/L 8.een/ 8.aa-/	.	8.aa-\	tan-	.	.	.	.
.	16gg/Jk	.	16gg\	-ga	.	.	.	.
=29	=29	=29	=29	=29	=29	=29	=29	=29
!	!	!	!LO:TX:a:t=Fine.	!	!	!	!	!
8FF/L 8C/	8a-/L 8ff/	.	[2ff\	zwój!	.	.	.	.
*	*X8va	*	*	*	*	*	*	*
!	!LO:TX:a:t=loco	!	!	!	!	!	!	!
16r	16r	.	.	.	.	.	.	.
16BBn/Jk	16Bn/Jk	.	.	.	.	.	.	.
8C/L	8c/L	.	.	.	.	.	.	.
8AA-/J	8A-/J	.	.	.	.	.	.	.
=30	=30	=30	=30	=30	=30	=30	=30	=30
8FF/	8F/	.	8ff\]	.	.	.	.	.
8r	8r	.	8r	.	.	.	.	.
8FFF/ 8FF/	8f\ 8a-\ 8cc\ 8ff\	.	4r	.	.	.	.	.
8r	8r	.	.	.	.	.	.	.
=31!|:	=31!|:	=31!|:	=31!|:	=31!|:	=31!|:	=31!|:	=31!|:	=31!|:
*>C	*	*	*	*	*	*	*	*
!	!	!	!	!	!	!	!	!LO:DY:a:rj
8.AAn\L 8.An\	8.g-X\L 8.cc\ 8.ee-\ 8.gg-X\	f	8.gg-X\	wo-	po-	.	.	f
16F\Jk	16f\Jk 16ff\	.	16ff\	-łam:	-tem	.	.	.
8A\L 8e-\	4f\ 4an\ 4cc\ 4ff\	.	4ff\	"Wróć!	idź!	.	.	.
8F\J	.	.	.	.	.	.	.	.
=32	=32	=32	=32	=32	=32	=32	=32	=32
8.FF/L 8.F/	8r	.	8r	.	.	.	.	.
!	!	!	!	!	!	!	!	!LO:DY:a
.	(>8fSsS/	>	(8fSsS/	Z swych	Już	.	.	>
16F/Jk	.	.	.	.	.	.	.	.
8An\L 8e-\	8an/L	.	8an/	ra-	z in-	.	.	.
8F\J	8cc/J	.	8cc\	-mion	-nym	.	.	.
=33	=33	=33	=33	=33	=33	=33	=33	=33
8.BBB-/L 8.BB-/	8.f/L) 8.cc/ 8.ee-/	.	8.ee-\)	sz-	szczę-	.	.	.
16F/Jk	16dd-/Jk	.	16dd-\	-ty	-ście	.	.	.
8B-\L 8d-\	4f/ 4b-/ 4dd-/	]]	4dd-\	zrzuć	pić	.	.	]]
8F\J	.	.	.	.	.	.	.	.
!!LO:LB:g=original
=34	=34	=34	=34	=34	=34	=34	=34	=34
8.DD-/L 8.D-/	8r	.	8r	.	.	.	.	.
.	24dd-\LL	.	24dd-\	Na	Roz-	.	.	.
.	24ee-\	.	24ee-\	zew	-ko-	.	.	.
16F/Jk	.	.	.	.	.	.	.	.
.	24dd-\JJ	.	24dd-\	mój	-szą	.	.	.
8B-\L 8d-\	8cc\L	.	8cc\	przyjdż	mu	.	.	.
8F\J	8dd-\J	.	8dd-\	roz-	w ra-	.	.	.
=35	=35	=35	=35	=35	=35	=35	=35	=35
!	!	!	!	!	!	!	!	!LO:DY:a:rj
8.EE-/L 8.E-/	8.g\L 8.dd-\ 8.ff\	p	8.ff\	-pa-	-mio-	.	.	p
16E-/Jk	16ee-\Jk	.	16ee-\	-czy	-nach	.	.	.
8G\L 8d-\	4g\ 4dd-\ 4ee-\	.	4ee-\	zew,	drżuj,	.	.	.
8E-\J	.	.	.	.	.	.	.	.
=36	=36	=36	=36	=36	=36	=36	=36	=36
8.EE-/L 8.E-/	8r	.	8r	.	.	.	.	.
!	!	!	!	!	!	!	!	!LO:DY:a
.	(>8e-SS/	>	(8e-SS/	Na	I	.	.	>
16E-/Jk	.	.	.	.	.	.	.	.
8G\L 8d-\	8g/L	.	8g/	krzyk...	o	.	.	.
8E-\J	8b-/J	.	8b-\	pi-	ko-	.	.	.
=37	=37	=37	=37	=37	=37	=37	=37	=37
8.AA-\L 8.A-\	8.f/L) 8.a-/ 8.dd-/	.	8.dd-\)	-ja-	-cha-	.	.	.
16E-\Jk	16cc/Jk	.	16cc\	-ny	-niu	.	.	.
8A-\L 8c\	4e-/ 4a-/ 4cc/	]]	4cc\	śpiew!	śnij!	.	.	]]
8E-\J	.	.	.	.	.	.	.	.
=38	=38	=38	=38	=38	=38	=38	=38	=38
8.AA-\L 8.A-\	8r	.	8r	.	.	.	.	.
.	24cc\LL	.	24cc\	Przyjdź	Prze-	.	.	.
.	24dd-\	.	24dd-\	za-	-pi-	.	.	.
16E-\Jk	.	.	.	.	.	.	.	.
.	24cc\JJ	.	24cc\	-płać	-ję	.	.	.
8A-\L 8c\	8bn\L	.	8bn\	za	twój	.	.	.
8E-\J	8cc\J	.	8cc\	me	któ-	.	.	.
!!LO:LB:g=original
=39	=39	=39	=39	=39	=39	=39	=39	=39
*	*	*	*^	*	*	*	*	*
!	!	!	!	!	!	!	!	!	!LO:DY:a
!	!	!	!	!	!	!	!	!	!LO:DY:a
8.CC/L 8.C/	8.b-X\L 8.een\ 8.aa-\	f	8.aa-\	8.ryy	gorz-	-lew-	.	.	f <
16c/Jk	16gg\Jk	<	16gg\	16ryy	-kie	-ski	.	.	.
*	*	*	*cue	*	*	*	*	*	*
8B-\L 8en\	4b-\ 4ee\ 4bb-\	.	4een\	4bb-\	łzy,	dar	.	.	.
8c\J	.	.	.	.	.	.	.	.	.
=40	=40	=40	=40	=40	=40	=40	=40	=40	=40
8.CC/L 8.C/	16r	.	16r	16ryy	.	.	.	.	.
.	16a-^\LL 16cc\ 16een\ 16aa-\	.	16een\	16aa-\^>	Za	Tej	.	.	.
.	16a-^\ 16cc\ 16ee\ 16aa-\	.	16ee\	16aa-\^>	kie-	je-	.	.	.
16c/Jk	16g^\JJ 16cc\ 16ee\ 16gg\	.	16ee\	16gg\^>	-lich	-dnej	.	.	.
8B-\L 8en\	16b-^\LL 16cc\ 16ee\ 16bb-\	.	16ee\	16bb-\^>	mę-	no-	.	.	.
.	16a-^\ 16cc\ 16ee\ 16aa-\	.	16ee\	16aa-\^>	-ki	-cy	.	.	.
8c\J	16a-^\ 16cc\ 16ee\ 16aa-\	.	16ee\	16aa-\^>	ro-	roz-	.	.	.
.	16g^\JJ 16cc\ 16ee\ 16gg\	[[	16ee\	16gg\^>	-zeł-	-pę-	.	.	[
*	*	*	*Xcue	*	*	*	*	*	*
*	*	*	*v	*v	*	*	*	*	*
=41	=41	=41	=41	=41	=41	=41	=41	=41
!	!	!	!	!	!	!	!	!LO:DY:a
8.DD-/L 8.D-/	8.a-\L 8.dd-\ 8.gg\	.	8.gg\	-ka-	-ta-	.	.	> >
16A-/Jk	16ff\Jk	.	16ff\	-ne	-nych	.	.	.
8F\L 8d-\	4a-\ 4dd-\ 4aa-\	.	4dd-\ 4aa-\	sny,	mar	.	.	.
8A-\J	.	.	.	.	.	.	.	.
=42	=42	=42	=42	=42	=42	=42	=42	=42
8.BBB-/L 8.BB-/	16r	.	16r	.	.	.	.	.
.	16g^\LL 16b-\ 16dd-\ 16gg\	.	16gg^\	Za	By	.	.	.
.	16g^\ 16b-\ 16dd-\ 16gg\	.	16gg^\	ty-	z nie-	.	.	.
16F/Jk	16f^\JJ 16b-\ 16dd-\ 16ff\	.	16ff^\	-le	-pa-	.	.	.
8B-\L 8d-\	16a-^\LL 16b-\ 16dd-\ 16aa-\	.	16aa-^\	lat	-mię-	.	.	.
.	16g^\ 16b-\ 16dd-\ 16gg\	.	16gg^\	mę-	-cią	.	.	.
8F\J	16g^\ 16b-\ 16dd-\ 16gg\	.	16gg^\	-czar-	iść	.	.	.
.	16f^\JJ 16b-\ 16dd-\ 16ff\	.	16ff^\	-ni	przez	.	.	]]
!!LO:LB:g=original
=43	=43	=43	=43	=43	=43	=43	=43	=43
8.EE-/L 8.E-/	16a-\KL 16cc\ 16ff\	.	16ff\	zgrzy-	ży-	.	.	]
.	[8.cc\J	.	8.cc\	-tu	-cie	.	.	.
16E-/Jk	.	.	.	.	.	.	.	.
8A-\L	[16c/LL 16cc/]	.	16r	.	.	.	.	.
.	16c/] 16a-/	.	16a-/	Je-	I	.	.	.
8E-\J	16e-/ 16b-/	.	16b-\	-dy-	tyl-	.	.	.
.	16a-/JJ 16cc/	.	16cc\	-ną	-ko	.	.	.
=44	=44	=44	=44	=44	=44	=44	=44	=44
!	!	!LO:DY:rj	!	!	!	!	!	!LO:DY:a:rj
8.EE-/L 8.E-/	16cc\KL	p	16cc\	noc	z od-	.	.	p
.	8d-\ 8e-\ 8g\ 8b-\ 8ee-\	.	8ee-\	od-	-da-	.	.	.
16E-/Jk	16cc\Jk	.	16cc\	-daj	-li	.	.	.
8G\L	8d-/L 8e-/ 8g/ 8b-/	.	8b-\	mi	tę-	.	.	.
8E-\J	8d-/J 8e-/ 8g/ 8cc/	.	8cc\	do	-sknić	.	.	.
=45	=45	=45	=45	=45	=45	=45	=45	=45
(8.AA-\L 8.E-\	2d-/ [2e-/ 2g/ 2b-/	.	(<2b-\	świ-	skry-	.	.	.
16En\Jk	.	.	.	.	.	.	.	.
8F\L	.	.	.	.	.	.	.	.
8G\J	.	.	.	.	.	.	.	.
=46	=46	=46	=46	=46	=46	=46	=46	=46
*>C1	*	*	*	*	*	*	*	*
4AA-\) 4A-\	4c/ 4e-/] 4a-/	.	4a-/)	-tu!	.	.	.	.
8AAA-/	8r	.	8r	.	.	.	.	.
8r	8ee-\	.	8ee-\	A	.	.	.	.
=47:|!	=47:|!	=47:|!	=47:|!	=47:|!	=47:|!	=47:|!	=47:|!	=47:|!
*>C2	*	*	*	*	*	*	*	*
!	!LO:TX:B:b:t=D.C.al Fine.	!	!LO:TX:B:a:t=D.C.al Fine.	!	!	!	!	!
4AA-\ 4A-\)	4c/) 4e-/ 4a-/	.	4a-/)	.	-cie!	.	.	.
8AAA-/	4r	.	4r	.	.	.	.	.
8r	.	.	.	.	.	.	.	.
==	==	==	==	==	==	==	==	==
*-	*-	*-	*-	*-	*-	*-	*-	*-
!!!system-decoration: (s1){(s2,s3)}
!!!RDF**kern: > = above
!!!RDF**kern: < = below
!!!ENC: Berenika Jozajtis
!!!END: 2023-08-25
!!!ENC: Leszek Kubiak
!!!END: 2023-09-30
